!!!OTL: Die beiden Waisenkinder Es waren zwei Waisenkinder,
!!!ARE: Europa, Mitteleuropa, Deutschland (BRD), Rheinland
!!!YOR: 5, S. 310
!!    ????
!!!SCT: Q0118E
!!!YEM: Copyright 1995, estate of Helmut Schaffrath.
**kern
*ICvox
*Ivox
*M6/8
*k[f#]
*G:
{8dd
=1
8b
8b
8b
4b
8b
=2
8cc
8cc
4.r}
{8cc
=3
8cc
8cc
8ee
4dd
8cc
=4
4.b
8r}
{8dd
8cc
=5
8b
8b
8b
8b
8cc
8dd
=6
4.ee
8ee
8dd}
{8cc
=7
8dd
8dd
8dd
4dd
8cc
=8
4.b
8r}
{8dd
8cc
=9
8b
8b
8b
8b
8cc
8dd
=10
4.ee
8ee
8dd}
{8cc
=11
8dd
8dd
8dd
4dd
8cc
=12
4b
4.r}
==
!!!AGN: Ballade, Waise, boese Stiefmutter, Klage am Grab, Geist
!! Schlusspause ergaenzt.
!!!ONB: ESAC (Essen Associative Code) Database: BALLADE
!!!AMT: compound duple
!!!AIN: vox
!!!EED: Helmut Schaffrath
!!!EEV: 1.0
*-
